images/sport-activities_theme_light.svg

<svg width="50" height="50" viewBox="0 0 50 50" fill="none" xmlns="http://www.w3.org/2000/svg">
<path fill-rule="evenodd" clip-rule="evenodd" d="M11.8164 35.3516V32.4219V29.4922H25H38.1836V32.4219V35.3516H41.1133H44.043V38.2812V41.2109H47.0215H50V45.6055V50H25H0V45.6055V41.2109H2.97852H5.95703V38.2812V35.3516H8.88672H11.8164ZM19.1895 45.4105L19.1644 38.9162L19.1393 32.4219H16.9427H14.7461V35.3516V38.2812H11.8164H8.88672V41.2109V44.1406H5.9082H2.92969V45.6055V47.0703H25H47.0703V45.6055V44.1406H44.0918H41.1133V41.2109V38.2812H38.1836H35.2539V35.3516V32.4219H33.0573H30.8607L30.8356 38.9162L30.8105 45.4105L27.9549 43.5061C26.3842 42.4586 25.0546 41.6016 25 41.6016C24.9454 41.6016 23.6158 42.4586 22.0451 43.5061L19.1895 45.4105ZM27.8803 39.8438C27.9074 39.8438 27.9297 38.1738 27.9297 36.1328V32.4219H25H22.0703V36.1328C22.0703 38.1738 22.0926 39.8438 22.1197 39.8438C22.1469 39.8438 22.8061 39.4193 23.5846 38.9007L25 37.9576L26.4154 38.9007C27.1939 39.4193 27.8531 39.8438 27.8803 39.8438Z" fill="#0086FF"/>
<path fill-rule="evenodd" clip-rule="evenodd" d="M17.6758 1.46484V2.92969H14.7422H11.8085L11.8369 7.10449C11.8649 11.2312 11.8679 11.2858 12.0954 11.85C12.222 12.1639 12.5102 12.6473 12.7358 12.9242C12.9615 13.2012 13.3634 13.5929 13.6287 13.7946C13.8941 13.9965 14.353 14.2568 14.6484 14.3732C15.0645 14.5372 15.4791 14.5977 16.4873 14.6411L17.7891 14.6973L17.9671 15.2038C18.065 15.4824 18.2693 15.9438 18.4212 16.2292C18.5729 16.5145 19.0276 17.0829 19.4316 17.4922C20.1088 18.1783 20.2973 18.302 21.8506 19.0797L23.5352 19.923V21.6803V23.4375H20.6055H17.6758V24.9023V26.3672H25H32.3242V24.9023V23.4375H29.3945H26.4648V21.7365V20.0355L27.997 19.241C28.8396 18.8041 29.7394 18.2923 29.9962 18.1037C30.253 17.9151 30.6451 17.555 30.8675 17.3033C31.0898 17.0517 31.3982 16.626 31.5529 16.3574C31.7076 16.0889 31.9261 15.5945 32.0383 15.2588L32.2425 14.6484H33.3398C34.0534 14.6484 34.6228 14.5943 34.9676 14.4937C35.2594 14.4085 35.6931 14.226 35.9313 14.0882C36.1696 13.9503 36.5518 13.665 36.7805 13.4543C37.0092 13.2435 37.3352 12.8546 37.5049 12.59C37.6747 12.3255 37.8968 11.8415 37.9985 11.5146C38.1675 10.972 38.1836 10.5717 38.1836 6.9249V2.92969H35.2539H32.3242V1.46484V0H25H17.6758V1.46484ZM29.3457 14.1113L29.3731 8.52051L29.4007 2.92969H24.9993H20.5979L20.6261 8.52051L20.6543 14.1113L20.9214 14.6179C21.0683 14.8966 21.3472 15.2786 21.5412 15.467C21.7526 15.6724 22.5387 16.1243 23.5035 16.5954L25.1132 17.3813L26.5856 16.6354C27.3955 16.2252 28.2257 15.7383 28.4305 15.5532C28.6353 15.3683 28.9249 14.9682 29.0742 14.6642L29.3457 14.1113ZM17.6758 11.737V8.79824V5.85938H16.2062H14.7365L14.7657 8.29385C14.7931 10.5756 14.8075 10.7453 14.9963 10.9978C15.107 11.146 15.3188 11.3578 15.467 11.4686C15.6874 11.6333 15.9129 11.6761 16.7061 11.7035L17.6758 11.737ZM35.0037 10.9978C35.1925 10.7453 35.2069 10.5756 35.2343 8.29385L35.2635 5.85938H33.7938H32.3242V8.79824V11.737L33.2939 11.7035C34.0871 11.6761 34.3126 11.6333 34.533 11.4686C34.6812 11.3578 34.893 11.146 35.0037 10.9978Z" fill="#0069B7"/>
<path d="M27.9297 36.1328C27.9297 38.1738 27.9074 39.8438 27.8803 39.8438C27.8531 39.8438 27.1939 39.4193 26.4154 38.9007L25 37.9576L23.5846 38.9007C22.8061 39.4193 22.1469 39.8438 22.1197 39.8438C22.0926 39.8438 22.0703 38.1738 22.0703 36.1328V32.4219H25H27.9297V36.1328Z" fill="#0086FF"/>
</svg>

<svg width="50" height="50" fill="none" xmlns="http://www.w3.org/2000/svg"><path fill-rule="evenodd" clip-rule="evenodd" d="M11.816 35.352v-5.86h26.368v5.86h5.859v5.859H50V50H0v-8.789h5.957v-5.86h5.86ZM19.19 45.41l-.025-6.495-.025-6.494h-4.394v5.86h-5.86v5.859H2.93v2.93h44.14v-2.929h-5.957v-5.86h-5.86v-5.86h-4.392l-.025 6.495-.025 6.495-2.856-1.905c-1.57-1.047-2.9-1.904-2.955-1.904-.055 0-1.384.857-2.955 1.904L19.19 45.41Zm8.691-5.567c.027 0 .05-1.67.05-3.711v-3.711h-5.86v3.71c0 2.042.023 3.712.05 3.712.027 0 .686-.425 1.465-.943L25 37.958l1.415.943c.779.518 1.438.943 1.465.943Z" fill="#0086FF"/><path fill-rule="evenodd" clip-rule="evenodd" d="M17.676 1.465V2.93h-5.868l.029 4.174c.028 4.127.03 4.182.258 4.746.127.314.415.797.64 1.074.226.277.628.669.894.87a5.16 5.16 0 0 0 1.02.58c.416.163.83.224 1.838.267l1.302.056.178.507c.098.278.302.74.454 1.025.152.286.607.854 1.01 1.263.678.686.866.81 2.42 1.588l1.684.843v3.515h-5.86v2.929h14.65v-2.93h-5.86v-3.401l1.533-.795c.843-.437 1.742-.949 2-1.137.256-.189.648-.549.87-.8.223-.252.531-.678.686-.947.155-.268.373-.762.485-1.098l.205-.61h1.097c.713 0 1.283-.055 1.628-.155.291-.085.725-.268.963-.406a5.85 5.85 0 0 0 .85-.634c.228-.21.554-.6.724-.864.17-.264.392-.748.493-1.075.17-.543.186-.943.186-4.59V2.93h-5.86V0H17.676v1.465Zm11.67 12.646.027-5.59.028-5.591h-8.803l.028 5.59.028 5.591.267.507c.147.279.426.66.62.849.212.205.998.657 1.962 1.128l1.61.786 1.473-.746c.81-.41 1.64-.897 1.845-1.082.204-.185.494-.585.643-.889l.272-.553Zm-11.67-2.374V5.859h-2.94l.03 2.435c.027 2.282.041 2.451.23 2.704.111.148.323.36.471.47.22.165.446.208 1.24.236l.969.033Zm17.328-.74c.189-.252.203-.421.23-2.703l.03-2.435h-2.94v5.878l.97-.034c.793-.027 1.019-.07 1.239-.234a2.8 2.8 0 0 0 .47-.471Z" fill="#0069B7"/><path d="M27.93 36.133c0 2.04-.023 3.71-.05 3.71-.027 0-.686-.424-1.465-.942L25 37.958l-1.415.943c-.779.518-1.438.943-1.465.943-.027 0-.05-1.67-.05-3.711v-3.711h5.86v3.71Z" fill="#0086FF"/></svg>
